fs/emoji_laugh_20_filled.svg

<svg viewBox="0 0 20 20" fill="none" xmlns="http://www.w3.org/2000/svg" height="1em" width="1em">
  <path d="M10 2C5.58172 2 2 5.58172 2 10C2 14.4183 5.58172 18 10 18C14.4183 18 18 14.4183 18 10C18 5.58172 14.4183 2 10 2ZM6.49435 8.0754C6.45271 8.34838 6.19766 8.53592 5.92467 8.49428C5.65169 8.45264 5.46415 8.19759 5.50579 7.9246C5.6331 7.08996 6.39155 6.5 7.24799 6.5C8.10443 6.5 8.86288 7.08996 8.99019 7.9246C9.03183 8.19759 8.84429 8.45264 8.57131 8.49428C8.29832 8.53592 8.04327 8.34838 8.00163 8.0754C7.95652 7.77966 7.66324 7.5 7.24799 7.5C6.83274 7.5 6.53946 7.77966 6.49435 8.0754ZM11.9944 8.0754C11.9527 8.34838 11.6977 8.53592 11.4247 8.49428C11.1517 8.45264 10.9641 8.19759 11.0058 7.9246C11.1331 7.08996 11.8916 6.5 12.748 6.5C13.6044 6.5 14.3629 7.08996 14.4902 7.9246C14.5318 8.19759 14.3443 8.45264 14.0713 8.49428C13.7983 8.53592 13.5433 8.34838 13.5016 8.0754C13.4565 7.77966 13.1632 7.5 12.748 7.5C12.3327 7.5 12.0395 7.77966 11.9944 8.0754ZM5.49536 10.5H14.4954C14.2804 12.7 12.5664 14.5 9.99536 14.5C7.42428 14.5 5.71024 12.7 5.49536 10.5Z" fill="#212121"/>
</svg>

<svg viewBox="0 0 20 20" fill="none" xmlns="http://www.w3.org/2000/svg" height="1em" width="1em">
  <path d="M10 2a8 8 0 1 0 0 16 8 8 0 0 0 0-16ZM6.494 8.075a.5.5 0 1 1-.988-.15C5.633 7.09 6.392 6.5 7.248 6.5s1.615.59 1.742 1.425a.5.5 0 1 1-.988.15c-.045-.295-.339-.575-.754-.575s-.709.28-.754.575Zm5.5 0a.5.5 0 0 1-.988-.15c.127-.835.886-1.425 1.742-1.425s1.615.59 1.742 1.425a.5.5 0 0 1-.988.15c-.046-.295-.339-.575-.754-.575s-.708.28-.754.575ZM5.495 10.5h9c-.215 2.2-1.929 4-4.5 4-2.57 0-4.285-1.8-4.5-4Z" fill="#212121"/>
</svg>
